svgs/sharp-regular/chart-line-up.svg

<svg xmlns="http://www.w3.org/2000/svg" viewBox="0 0 512 512"><!--! Font Awesome Pro 6.6.0 by @fontawesome - https://fontawesome.com License - https://fontawesome.com/license (Commercial License) Copyright 2024 Fonticons, Inc. --><path d="M48 56l0-24L0 32 0 56 0 456l0 24 24 0 464 0 24 0 0-48-24 0L48 432 48 56zm296 72l-24 0 0 48 24 0 54.1 0L304 270.1l-79-79-17-17-17 17-80 80-17 17L128 321.9l17-17 63-63 79 79 17 17 17-17 111-111 0 54.1 0 24 48 0 0-24 0-112 0-24-24 0-112 0z"/></svg>

<svg xmlns="http://www.w3.org/2000/svg" viewBox="0 0 512 512"><!--! Font Awesome Pro 6.4.2 by @fontawesome - https://fontawesome.com License - https://fontawesome.com/license (Commercial License) Copyright 2023 Fonticons, Inc. --><path d="M48 56V32H0V56 456v24H24 488h24V432H488 48V56zm296 72H320v48h24 54.1L304 270.1l-79-79-17-17-17 17-80 80-17 17L128 321.9l17-17 63-63 79 79 17 17 17-17 111-111V264v24h48V264 152 128H456 344z"/></svg>
